src/actions/16/layer-visible-on.svg

<svg xmlns="http://www.w3.org/2000/svg" viewBox="0 0 16 16">
    <path d="M4 3 1 5h11l3-2H4zm0 4L1 9h11l3-2H4zm0 4-3 2h11l3-2H4z" style="fill:currentColor;fill-opacity:1;stroke:none;color:#050505;opacity:.7"/>
</svg>

<svg xmlns="http://www.w3.org/2000/svg" viewBox="0 0 16 16">
  <defs id="defs3051">
    <style type="text/css" id="current-color-scheme">
      .ColorScheme-Text {
        color:#363636;
      }
      </style>
  </defs>
 <path style="fill:currentColor;fill-opacity:1;stroke:none" 
     d="M 4 3 L 1 5 L 12 5 L 15 3 L 4 3 z M 4 7 L 1 9 L 12 9 L 15 7 L 4 7 z M 4 11 L 1 13 L 12 13 L 15 11 L 4 11 z "
     class="ColorScheme-Text"
     />
</svg>
